assets/favicon-B9R-3GBe.svg

<svg width="32" height="32" viewBox="0 0 32 32" fill="none" xmlns="http://www.w3.org/2000/svg">
  <rect width="32" height="32" rx="16" fill="#B09555"/>
  <path d="M10 10H22C23.1046 10 24 10.8954 24 12V20C24 21.1046 23.1046 22 22 22H10C8.89543 22 8 21.1046 8 20V12C8 10.8954 8.89543 10 10 10Z" stroke="white" stroke-width="1.5" stroke-linecap="round" stroke-linejoin="round"/>
  <path d="M16 19C17.6569 19 19 17.6569 19 16C19 14.3431 17.6569 13 16 13C14.3431 13 13 14.3431 13 16C13 17.6569 14.3431 19 16 19Z" stroke="white" stroke-width="1.5" stroke-linecap="round" stroke-linejoin="round"/>
  <path d="M20.5 12.5H20.51" stroke="white" stroke-width="1.5" stroke-linecap="round" stroke-linejoin="round"/>
</svg>

<svg xmlns="http://www.w3.org/2000/svg" width="32" height="32" fill="none" viewBox="0 0 32 32"><rect width="32" height="32" fill="#B09555" rx="16"/><path stroke="#fff" stroke-linecap="round" stroke-linejoin="round" stroke-width="1.5" d="M10 10h12a2 2 0 0 1 2 2v8a2 2 0 0 1-2 2H10a2 2 0 0 1-2-2v-8a2 2 0 0 1 2-2"/><path stroke="#fff" stroke-linecap="round" stroke-linejoin="round" stroke-width="1.5" d="M16 19a3 3 0 1 0 0-6 3 3 0 0 0 0 6m4.5-6.5h.01"/></svg>
